public/images/icons/renaissance-hand.svg

<svg width="625" height="333" viewBox="0 0 625 333" fill="none" xmlns="http://www.w3.org/2000/svg">
<path fill-rule="evenodd" clip-rule="evenodd" d="M376.542 60.6741C373.358 61.5943 371.523 64.9209 372.444 68.1042L380.832 97.1235L414.926 97.7868C415.625 97.8004 416.295 98.0653 416.815 98.533C432.511 112.658 426.571 138.532 406.285 144.396L395.406 147.541L431.142 271.169C432.062 274.353 435.389 276.187 438.572 275.267L616.604 223.805C619.787 222.885 621.622 219.558 620.702 216.375L562.004 13.3098C561.083 10.1264 557.757 8.29173 554.573 9.21193L376.542 60.6741ZM370.522 68.6596C369.295 64.4151 371.742 59.9797 375.986 58.7527L554.018 7.29059C558.263 6.06367 562.698 8.5099 563.925 12.7544L622.623 215.819C623.85 220.064 621.404 224.499 617.159 225.726L439.127 277.189C434.883 278.415 430.448 275.969 429.221 271.725L392.929 146.175L405.73 142.475C424.508 137.046 430.007 113.095 415.477 100.02C415.315 99.8735 415.105 99.7906 414.887 99.7864L379.32 99.0945L370.522 68.6596Z" fill="#182026"/>
<path d="M554.3 8.25188L445.081 39.8226L376.268 59.714C372.554 60.7876 370.413 64.6686 371.487 68.3826L380.08 98.1096L414.91 98.7872C415.369 98.7961 415.809 98.97 416.15 99.277C431.263 112.877 425.543 137.79 406.011 143.436L394.171 146.858L430.185 271.448C431.259 275.162 435.14 277.302 438.854 276.228L616.886 224.766C620.599 223.693 622.74 219.812 621.666 216.098L562.968 13.0327C561.895 9.31877 558.014 7.17832 554.3 8.25188Z" fill="url(#paint0_linear_1870_48567)"/>
<path fill-rule="evenodd" clip-rule="evenodd" d="M376.542 60.6741C373.358 61.5943 371.523 64.9209 372.444 68.1042L380.832 97.1235L414.926 97.7868C415.625 97.8004 416.295 98.0653 416.815 98.533C432.511 112.658 426.571 138.532 406.285 144.396L395.406 147.541L431.142 271.169C432.062 274.353 435.389 276.187 438.572 275.267L616.604 223.805C619.787 222.885 621.622 219.558 620.702 216.375L562.004 13.3098C561.083 10.1264 557.757 8.29173 554.573 9.21193L376.542 60.6741ZM370.522 68.6596C369.295 64.4151 371.742 59.9797 375.986 58.7527L554.018 7.29059C558.263 6.06367 562.698 8.5099 563.925 12.7544L622.623 215.819C623.85 220.064 621.404 224.499 617.159 225.726L439.127 277.189C434.883 278.415 430.448 275.969 429.221 271.725L392.929 146.175L405.73 142.475C424.508 137.046 430.007 113.095 415.477 100.02C415.315 99.8735 415.105 99.7906 414.887 99.7864L379.32 99.0945L370.522 68.6596Z" fill="#182026"/>
<path d="M429.414 167.932L406.28 184.687C405.718 185.094 404.922 184.818 404.732 184.15L380.123 97.5254L430.045 88.9305C435.944 87.9148 441.408 92.275 441.727 98.2528L443.833 137.721C444.466 149.586 439.036 160.962 429.414 167.932Z" fill="#005CC5"/>
<path d="M608.884 208.874L590.623 149.397C590.181 147.956 588.051 148.297 588.081 149.804L588.542 173.327C588.864 189.767 582.642 205.662 571.245 217.515L561.346 227.809C560.41 228.782 561.395 230.361 562.681 229.948L604.985 216.348C608.11 215.343 609.848 212.013 608.884 208.874Z" fill="#4D9FFF"/>
<path d="M337.198 33.1953C347.466 25.3522 360.663 22.4189 373.287 25.1737L441.009 39.9522L376.948 58.4698C372.173 59.8501 369.421 64.84 370.801 69.615L378.839 97.4207L330.172 111.488C329.642 111.642 329.336 112.196 329.489 112.727C329.643 113.257 330.197 113.563 330.728 113.41L425.911 85.8957C431.509 84.2775 437.36 87.5039 438.978 93.1022C444.835 113.366 433.157 134.541 412.893 140.399L375.337 151.255C367.453 153.534 360.072 157.285 353.583 162.311L324.364 184.943C319.074 189.041 313.055 192.1 306.627 193.958L247.233 211.127L217.066 106.767L227.799 103.665C246.022 98.3971 263.108 89.7863 278.183 78.2715L337.198 33.1953Z" fill="url(#paint1_linear_1870_48567)"/>
<path d="M467.84 130.548L477.186 127.847C483.201 126.108 487.96 128.364 489.453 133.53C490.668 137.732 489.078 141.41 485.303 143.585L495.443 151.807L491.957 152.814L482.074 144.898L475.68 146.746L478.554 156.689L475.64 157.531L467.84 130.548ZM481.742 142.026C485.57 140.92 487.682 138.303 486.545 134.37C485.464 130.631 482.317 129.365 478.409 130.495L471.555 132.476L474.886 144.001L481.74 142.02L481.742 142.026Z" fill="#FDFDFD"/>
<path d="M493.562 123.111L513.366 117.386L514.892 122.664L500.792 126.74L502.331 132.061L515.778 128.174L517.282 133.377L503.835 137.264L505.539 143.161L519.639 139.085L521.166 144.369L501.362 150.094L493.562 123.111Z" fill="#FDFDFD"/>
<path d="M519.182 95.4092C499.684 85.2783 478.941 89.9666 465.28 102.5C452.014 114.093 445.865 132.817 451.098 150.92C456.268 168.804 471.145 181.28 488.285 184.206C506.706 187.812 527.1 180.751 538.307 161.548C551.787 138.72 542.75 107.528 519.182 95.4092ZM452.484 150.519C448.108 135.38 451.944 119.792 461.336 108.587C470.743 97.9669 485.064 91.7471 500.695 94.0654C538.633 99.8286 552.376 147.419 523.369 172.527C511.317 182.895 495.77 185.247 482.085 181.181C468.275 176.662 456.833 165.565 452.484 150.519Z" fill="#FDFDFD"/>
<path d="M228.996 151.02L215.594 106.454C237.77 99.8069 235.938 101.691 243.496 97.0234C219.796 111.66 230.257 136.002 228.996 151.02Z" fill="#D9D9D9"/>
<path d="M332.628 112.034L379.121 98.7629C375.341 82.7894 374.154 79.1391 373.877 75.2025C373.764 73.587 373.546 77.1084 373.623 74.5251C373.623 74.5251 373.541 73.2475 373.234 75.0326C368.637 101.826 344.23 103.97 332.628 112.034Z" fill="#D9D9D9"/>
<path fill-rule="evenodd" clip-rule="evenodd" d="M373.286 25.1751C360.662 22.4203 347.465 25.3535 337.197 33.1966L278.182 78.2729C263.106 89.7876 246.021 98.3984 227.797 103.666L217.065 106.769L247.232 211.128L306.626 193.96C313.054 192.101 319.073 189.042 324.363 184.945L353.582 162.312C360.07 157.287 367.452 153.535 375.336 151.256L412.892 140.4C433.156 134.543 444.834 113.367 438.977 93.1035C437.358 87.5052 431.508 84.2788 425.91 85.897L330.726 113.411C330.196 113.564 329.641 113.259 329.488 112.728C329.335 112.197 329.64 111.643 330.171 111.49L378.837 97.422L370.8 69.6164C369.419 64.8413 372.171 59.8514 376.947 58.4711L441.008 39.9535L373.286 25.1751ZM380.759 96.8667L372.721 69.061C371.648 65.347 373.788 61.466 377.502 60.3924L445.355 40.7787L445.291 38.841L373.712 23.2211C360.514 20.341 346.718 23.4076 335.983 31.6072L276.968 76.6835C262.09 88.0477 245.228 96.546 227.242 101.745L214.588 105.403L245.866 213.605L307.181 195.881C313.852 193.953 320.098 190.778 325.588 186.526L354.807 163.893C361.095 159.022 368.25 155.386 375.891 153.178L413.447 142.322C434.772 136.157 447.062 113.873 440.898 92.5482C438.973 85.8887 432.014 82.0507 425.355 83.9757L380.759 96.8667Z" fill="#182026"/>
<path d="M254.662 237.618L211.562 88.5174C210.949 86.3952 208.731 85.1721 206.609 85.7855L129.972 107.938C127.85 108.552 126.627 110.769 127.24 112.892L170.34 261.993C170.953 264.115 173.171 265.338 175.293 264.725L251.93 242.572C254.052 241.958 255.275 239.741 254.662 237.618Z" fill="url(#paint2_linear_1870_48567)"/>
<path opacity="0.6" d="M247.556 232.781L215.852 123.053L236.366 209.027C239.535 222.308 234.335 236.184 223.219 244.112C223.109 244.19 223.195 244.363 223.325 244.321L245.144 237.31C247.04 236.701 248.109 234.694 247.556 232.781Z" fill="#B0E0FF"/>
<g style="mix-blend-mode:darken">
<path d="M133.395 106.998L205.27 85.4076C205.999 85.1886 206.775 85.1822 207.508 85.3891L207.531 85.3956C207.773 85.4639 208.008 85.5548 208.232 85.6672L210.895 86.9983C156.936 101.456 139.742 128.868 137.768 141.141L131.162 116.488C128.52 106.626 128.895 107.998 133.395 106.998Z" fill="#005CC5"/>
</g>
<path fill-rule="evenodd" clip-rule="evenodd" d="M210.602 88.7954C210.142 87.2037 208.479 86.2864 206.887 86.7465L130.25 108.899C128.659 109.359 127.741 111.023 128.201 112.614L171.301 261.715C171.761 263.307 173.424 264.224 175.016 263.764L251.652 241.611C253.244 241.151 254.161 239.488 253.701 237.896L210.602 88.7954ZM206.332 84.8251C208.984 84.0583 211.757 85.5872 212.523 88.24L255.623 237.341C256.389 239.994 254.861 242.766 252.208 243.533L175.571 265.685C172.918 266.452 170.146 264.923 169.379 262.271L126.28 113.17C125.513 110.517 127.042 107.745 129.695 106.978L206.332 84.8251Z" fill="#182026"/>
<path d="M175.365 271.016L127.185 103.035C126.575 100.908 124.355 99.6807 122.229 100.295L1 135.337L1.00076 330.883L172.74 275.928C174.799 275.269 175.961 273.094 175.365 271.016Z" fill="url(#paint3_linear_1870_48567)"/>
<path opacity="0.6" d="M167.126 266.565L128.359 136.789L154.563 242.69C157.821 255.856 153.281 269.726 142.87 278.418C142.764 278.507 142.859 278.677 142.99 278.634L164.549 271.508C166.603 270.829 167.745 268.639 167.126 266.565Z" fill="#544590"/>
<path d="M120.954 100.812L122.057 100.506C122.765 100.31 123.514 100.314 124.22 100.517C125.287 100.825 126.177 101.565 126.674 102.559L127.395 104C88.5606 114.77 40.729 125.264 19.709 145.413C-0.441822 164.729 2.40181 194.343 0.992021 202.415C-0.46405 197.164 2.09075 165.024 1.12769 150.5C1.08847 149.908 1.04342 149.346 0.992021 148.816L0.992021 138.526C0.992021 136.736 2.18133 135.164 3.90389 134.677L12.8947 132.135L120.954 100.812Z" fill="#2A334B"/>
<path fill-rule="evenodd" clip-rule="evenodd" d="M121.952 99.3347C124.608 98.5667 127.384 100.101 128.146 102.76L176.327 270.74C177.072 273.338 175.618 276.057 173.044 276.881L0.000763834 332.253L0 134.585L121.952 99.3347ZM126.224 103.311C125.766 101.716 124.101 100.795 122.507 101.256L2.00001 136.089L2.00075 329.513L172.435 274.976C173.979 274.482 174.851 272.85 174.404 271.292L126.224 103.311Z" fill="#182026"/>
<defs>
<linearGradient id="paint0_linear_1870_48567" x1="465.284" y1="33.9829" x2="527.87" y2="250.497" gradientUnits="userSpaceOnUse">
<stop stop-color="#0370ED"/>
<stop offset="1" stop-color="#4399FA"/>
</linearGradient>
<linearGradient id="paint1_linear_1870_48567" x1="318.014" y1="29.9108" x2="361.177" y2="179.231" gradientUnits="userSpaceOnUse">
<stop stop-color="#F9F8F8"/>
<stop offset="1" stop-color="white"/>
</linearGradient>
<linearGradient id="paint2_linear_1870_48567" x1="168.29" y1="96.8619" x2="213.611" y2="253.648" gradientUnits="userSpaceOnUse">
<stop stop-color="#0370ED"/>
<stop offset="1" stop-color="#4399FA"/>
</linearGradient>
<linearGradient id="paint3_linear_1870_48567" x1="82.9843" y1="100.401" x2="89.442" y2="328.376" gradientUnits="userSpaceOnUse">
<stop stop-color="#2D3368"/>
<stop offset="1" stop-color="#3D2D6C"/>
</linearGradient>
</defs>
</svg>

<svg fill="none" viewBox="0 0 625 333"><path fill="#182026" fill-rule="evenodd" d="M376.542 60.674a5.999 5.999 0 00-4.098 7.43l8.388 29.02 34.094.663a2.909 2.909 0 011.889.746c15.696 14.125 9.756 39.999-10.53 45.863l-10.879 3.145 35.736 123.628a6 6 0 007.43 4.098l178.032-51.462a6 6 0 004.098-7.43L562.004 13.31a6 6 0 00-7.431-4.098L376.542 60.674zm-6.02 7.986a8 8 0 015.464-9.907L554.018 7.29a8 8 0 019.907 5.463l58.698 203.065a8 8 0 01-5.464 9.907l-178.032 51.463a8 8 0 01-9.906-5.464l-36.292-125.55 12.801-3.7c18.778-5.429 24.277-29.38 9.747-42.455a.906.906 0 00-.59-.234l-35.567-.692-8.798-30.434z" clip-rule="evenodd"/><path fill="url(#paint0_linear_1870_48567)" d="M554.3 8.252l-109.219 31.57-68.813 19.892a7 7 0 00-4.781 8.669l8.593 29.727 34.83.677c.459.01.899.183 1.24.49 15.113 13.6 9.393 38.513-10.139 44.159l-11.84 3.422 36.014 124.59a7 7 0 008.669 4.78l178.032-51.462a7 7 0 004.78-8.668L562.968 13.033a7 7 0 00-8.668-4.781z"/><path fill="#182026" fill-rule="evenodd" d="M376.542 60.674a5.999 5.999 0 00-4.098 7.43l8.388 29.02 34.094.663a2.909 2.909 0 011.889.746c15.696 14.125 9.756 39.999-10.53 45.863l-10.879 3.145 35.736 123.628a6 6 0 007.43 4.098l178.032-51.462a6 6 0 004.098-7.43L562.004 13.31a6 6 0 00-7.431-4.098L376.542 60.674zm-6.02 7.986a8 8 0 015.464-9.907L554.018 7.29a8 8 0 019.907 5.463l58.698 203.065a8 8 0 01-5.464 9.907l-178.032 51.463a8 8 0 01-9.906-5.464l-36.292-125.55 12.801-3.7c18.778-5.429 24.277-29.38 9.747-42.455a.906.906 0 00-.59-.234l-35.567-.692-8.798-30.434z" clip-rule="evenodd"/><path fill="#005CC5" d="M429.414 167.932l-23.134 16.755a1 1 0 01-1.548-.537l-24.609-86.625 49.922-8.595c5.899-1.015 11.363 3.345 11.682 9.323l2.106 39.468a35.003 35.003 0 01-14.419 30.211z"/><path fill="#4D9FFF" d="M608.884 208.874l-18.261-59.477c-.442-1.441-2.572-1.1-2.542.407l.461 23.523a62.002 62.002 0 01-17.297 44.188l-9.899 10.294c-.936.973.049 2.552 1.335 2.139l42.304-13.6a6 6 0 003.899-7.474z"/><path fill="url(#paint1_linear_1870_48567)" d="M337.198 33.195a44 44 0 0136.089-8.021l67.722 14.778-64.061 18.518a9 9 0 00-6.147 11.145l8.038 27.806-48.667 14.067a1.002 1.002 0 00.556 1.922l95.183-27.514c5.598-1.618 11.449 1.608 13.067 7.206 5.857 20.264-5.821 41.439-26.085 47.297l-37.556 10.856a65.004 65.004 0 00-21.754 11.056l-29.219 22.632a52.991 52.991 0 01-17.737 9.015l-59.394 17.169-30.167-104.36 10.733-3.102a153.004 153.004 0 0050.384-25.394l59.015-45.076z"/><path fill="#FDFDFD" d="M467.84 130.548l9.346-2.701c6.015-1.739 10.774.517 12.267 5.683 1.215 4.202-.375 7.88-4.15 10.055l10.14 8.222-3.486 1.007-9.883-7.916-6.394 1.848 2.874 9.943-2.914.842-7.8-26.983zm13.902 11.478c3.828-1.106 5.94-3.723 4.803-7.656-1.081-3.739-4.228-5.005-8.136-3.875l-6.854 1.981 3.331 11.525 6.854-1.981.002.006zm11.82-18.915l19.804-5.725 1.526 5.278-14.1 4.076 1.539 5.321 13.447-3.887 1.504 5.203-13.447 3.887 1.704 5.897 14.1-4.076 1.527 5.284-19.804 5.725-7.8-26.983z"/><path fill="#FDFDFD" d="M519.182 95.41c-19.498-10.132-40.241-5.443-53.902 7.09-13.266 11.593-19.415 30.317-14.182 48.42 5.17 17.884 20.047 30.36 37.187 33.286 18.421 3.606 38.815-3.455 50.022-22.658 13.48-22.828 4.443-54.02-19.125-66.139zm-66.698 55.109c-4.376-15.139-.54-30.727 8.852-41.932 9.407-10.62 23.728-16.84 39.359-14.522 37.938 5.764 51.681 53.354 22.674 78.462-12.052 10.368-27.599 12.72-41.284 8.654-13.81-4.519-25.252-15.616-29.601-30.662z"/><path fill="#D9D9D9" d="M228.996 151.02l-13.402-44.566c22.176-6.647 20.344-4.763 27.902-9.43-23.7 14.636-13.239 38.978-14.5 53.996zm103.632-38.986l46.493-13.271c-3.78-15.974-4.967-19.624-5.244-23.56-.113-1.616-.331 1.905-.254-.678 0 0-.082-1.278-.389.508-4.597 26.793-29.004 28.937-40.606 37.001z"/><path fill="#182026" fill-rule="evenodd" d="M373.286 25.175a44 44 0 00-36.089 8.022l-59.015 45.076a153.004 153.004 0 01-50.385 25.393l-10.732 3.103 30.167 104.359 59.394-17.168a53.028 53.028 0 0017.737-9.015l29.219-22.633a65.013 65.013 0 0121.754-11.056l37.556-10.856c20.264-5.857 31.942-27.033 26.085-47.297-1.619-5.598-7.469-8.824-13.067-7.206l-95.184 27.514a1 1 0 11-.555-1.921l48.666-14.068-8.037-27.806a8.999 8.999 0 016.147-11.145l64.061-18.517-67.722-14.779zm7.473 71.692l-8.038-27.806a7 7 0 014.781-8.669l67.853-19.613-.064-1.938-71.579-15.62a45.998 45.998 0 00-37.729 8.386l-59.015 45.076a150.996 150.996 0 01-49.726 25.062l-12.654 3.658 31.278 108.202 61.315-17.724a55.003 55.003 0 0018.407-9.355l29.219-22.633a62.98 62.98 0 0121.084-10.715l37.556-10.856c21.325-6.165 33.615-28.449 27.451-49.774-1.925-6.66-8.884-10.497-15.543-8.572l-44.596 12.89z" clip-rule="evenodd"/><path fill="url(#paint2_linear_1870_48567)" d="M254.662 237.618l-43.1-149.1a4 4 0 00-4.953-2.733l-76.637 22.153a4.001 4.001 0 00-2.732 4.954l43.1 149.101a4 4 0 004.953 2.732l76.637-22.153a4.001 4.001 0 002.732-4.954z"/><path fill="#B0E0FF" d="M247.556 232.781l-31.704-109.728 20.514 85.974a33.534 33.534 0 01-13.147 35.085c-.11.078-.024.251.106.209l21.819-7.011a3.683 3.683 0 002.412-4.529z" opacity=".6"/><path fill="#005CC5" d="M133.395 106.998l71.875-21.59a4 4 0 012.238-.019l.023.007c.242.068.477.159.701.271l2.663 1.331c-53.959 14.458-71.153 41.87-73.127 54.143l-6.606-24.653c-2.642-9.862-2.267-8.49 2.233-9.49z"/><path fill="#182026" fill-rule="evenodd" d="M210.602 88.795a3 3 0 00-3.715-2.049L130.25 108.9a3 3 0 00-2.049 3.715l43.1 149.101a3 3 0 003.715 2.049l76.636-22.153a3 3 0 002.049-3.715l-43.099-149.1zm-4.27-3.97a5 5 0 016.191 3.415l43.1 149.101a5 5 0 01-3.415 6.192l-76.637 22.152a5 5 0 01-6.192-3.414L126.28 113.17a5 5 0 013.415-6.192l76.637-22.153z" clip-rule="evenodd"/><path fill="url(#paint3_linear_1870_48567)" d="M175.365 271.016l-48.18-167.981a4 4 0 00-4.956-2.74L1 135.337v195.546l171.74-54.955a3.999 3.999 0 002.625-4.912z"/><path fill="#544590" d="M167.126 266.565l-38.767-129.776 26.204 105.901a35.45 35.45 0 01-11.693 35.728c-.106.089-.011.259.12.216l21.559-7.126a4 4 0 002.577-4.943z" opacity=".6"/><path fill="#2A334B" d="M120.954 100.812l1.103-.306a3.976 3.976 0 014.617 2.053l.721 1.441c-38.834 10.77-86.666 21.264-107.686 41.413-20.15 19.316-17.307 48.93-18.717 57.002-1.456-5.251 1.099-37.391.136-51.915a55.541 55.541 0 00-.136-1.684v-10.29a4 4 0 012.912-3.849l8.99-2.542 108.06-31.323z"/><path fill="#182026" fill-rule="evenodd" d="M121.952 99.335a5 5 0 016.194 3.425l48.181 167.98a5 5 0 01-3.283 6.141L.001 332.253 0 134.585l121.952-35.25zm4.272 3.976a3 3 0 00-3.717-2.055L2 136.089v193.424l170.435-54.537a3 3 0 001.969-3.684l-48.18-167.981z" clip-rule="evenodd"/><defs><linearGradient id="paint0_linear_1870_48567" x1="465.284" x2="527.87" y1="33.983" y2="250.497" gradientUnits="userSpaceOnUse"><stop stop-color="#0370ED"/><stop offset="1" stop-color="#4399FA"/></linearGradient><linearGradient id="paint1_linear_1870_48567" x1="318.014" x2="361.177" y1="29.911" y2="179.231" gradientUnits="userSpaceOnUse"><stop stop-color="#F9F8F8"/><stop offset="1" stop-color="#fff"/></linearGradient><linearGradient id="paint2_linear_1870_48567" x1="168.29" x2="213.611" y1="96.862" y2="253.648" gradientUnits="userSpaceOnUse"><stop stop-color="#0370ED"/><stop offset="1" stop-color="#4399FA"/></linearGradient><linearGradient id="paint3_linear_1870_48567" x1="82.984" x2="89.442" y1="100.401" y2="328.376" gradientUnits="userSpaceOnUse"><stop stop-color="#2D3368"/><stop offset="1" stop-color="#3D2D6C"/></linearGradient></defs></svg>
